Yaru++/actions/16/mail-mark-important.svg

<svg height="16" width="16" xmlns="http://www.w3.org/2000/svg"><circle cx="8" cy="8" fill="#1a7fd4" r="7.5"/><path d="m8.8169238 5.3034892q0 1.373077-.098077 2.5003849-.098077 1.1111538-.2446154 2.2223089h-.9484614q-.1465385-1.1111551-.2446154-2.2223089-.0980769-1.1273079-.0980769-2.5003849v-3.0726923h1.6338461zm.2780769 7.3707688q0 .44077-.2942307.768462-.293077.326538-.8007693.326538-.5076923 0-.8007692-.326538-.2942308-.327692-.2942308-.768462 0-.440769.2942308-.768461.2942308-.326539.8007692-.326539.5076923 0 .8007693.326539.2942307.327692.2942307.768461z" fill="#fff" stroke-width="1.153846"/><path d="m8 .5a7.5 7.5 0 0 0 -7.5 7.5 7.5 7.5 0 0 0 .00976562.2871094 7.5 7.5 0 0 1 7.49023438-7.2871094 7.5 7.5 0 0 1 7.490234 7.2128906 7.5 7.5 0 0 0 .009766-.2128906 7.5 7.5 0 0 0 -7.5-7.5z" fill="#fff" opacity=".3"/><path d="m8.000019 15.5a7.5 7.5 0 0 0 7.5-7.4999997 7.5 7.5 0 0 0 -.0098-.28711 7.5 7.5 0 0 1 -7.490234 7.2871097 7.5 7.5 0 0 1 -7.490234-7.2128907 7.5 7.5 0 0 0 -.00977.212891 7.5 7.5 0 0 0 7.5 7.4999997z" opacity=".2"/></svg>

<?xml version="1.0" encoding="UTF-8" standalone="no"?>
<svg
   xmlns:dc="http://purl.org/dc/elements/1.1/"
   xmlns:cc="http://creativecommons.org/ns#"
   xmlns:rdf="http://www.w3.org/1999/02/22-rdf-syntax-ns#"
   xmlns:svg="http://www.w3.org/2000/svg"
   xmlns="http://www.w3.org/2000/svg"
   xmlns:sodipodi="http://sodipodi.sourceforge.net/DTD/sodipodi-0.dtd"
   xmlns:inkscape="http://www.inkscape.org/namespaces/inkscape"
   width="16"
   height="16"
   version="1.1"
   id="svg8"
   sodipodi:docname="mail-mark-important.svg"
   inkscape:version="0.92.4 (5da689c313, 2019-01-14)">
  <metadata
     id="metadata14">
    <rdf:RDF>
      <cc:Work
         rdf:about="">
        <dc:format>image/svg+xml</dc:format>
        <dc:type
           rdf:resource="http://purl.org/dc/dcmitype/StillImage" />
        <dc:title></dc:title>
      </cc:Work>
    </rdf:RDF>
  </metadata>
  <defs
     id="defs12" />
  <sodipodi:namedview
     pagecolor="#ffffff"
     bordercolor="#666666"
     borderopacity="1"
     objecttolerance="10"
     gridtolerance="10"
     guidetolerance="10"
     inkscape:pageopacity="0"
     inkscape:pageshadow="2"
     inkscape:window-width="1920"
     inkscape:window-height="1016"
     id="namedview10"
     showgrid="false"
     showguides="false"
     inkscape:zoom="14.75"
     inkscape:cx="8"
     inkscape:cy="8"
     inkscape:window-x="0"
     inkscape:window-y="27"
     inkscape:window-maximized="1"
     inkscape:current-layer="svg8" />
  <circle
     style="display:inline;opacity:1;fill:#1a7fd4;fill-opacity:1;stroke:none;stroke-width:2.15700412;stroke-linecap:round;stroke-linejoin:round;stroke-miterlimit:4;stroke-dasharray:none;stroke-opacity:1;enable-background:new"
     id="path9498-6-5-6-8"
     cx="8"
     cy="8"
     r="7.5" />
  <path
     style="font-weight:400;font-family:Ubuntu;letter-spacing:0;word-spacing:0;fill:#ffffff;fill-opacity:1;stroke-width:1.15384614"
     id="path4-3"
     word-spacing="0"
     letter-spacing="0"
     font-weight="400"
     d="m 8.8169238,5.3034892 q 0,1.373077 -0.098077,2.5003849 -0.098077,1.1111538 -0.2446154,2.2223089 H 7.52577 Q 7.3792315,8.9150279 7.2811546,7.8038741 7.1830777,6.6765662 7.1830777,5.3034892 V 2.2307969 h 1.6338461 z m 0.2780769,7.3707688 q 0,0.44077 -0.2942307,0.768462 -0.293077,0.326538 -0.8007693,0.326538 -0.5076923,0 -0.8007692,-0.326538 -0.2942308,-0.327692 -0.2942308,-0.768462 0,-0.440769 0.2942308,-0.768461 0.2942308,-0.326539 0.8007692,-0.326539 0.5076923,0 0.8007693,0.326539 0.2942307,0.327692 0.2942307,0.768461 z"
     inkscape:connector-curvature="0" />
  <path
     style="display:inline;opacity:0.3;fill:#ffffff;fill-opacity:1;stroke:none;stroke-width:2.15700412;stroke-linecap:round;stroke-linejoin:round;stroke-miterlimit:4;stroke-dasharray:none;stroke-opacity:1;enable-background:new"
     d="M 8 0.5 A 7.5 7.5 0 0 0 0.5 8 A 7.5 7.5 0 0 0 0.50976562 8.2871094 A 7.5 7.5 0 0 1 8 1 A 7.5 7.5 0 0 1 15.490234 8.2128906 A 7.5 7.5 0 0 0 15.5 8 A 7.5 7.5 0 0 0 8 0.5 z "
     id="circle857" />
  <path
     id="path862"
     d="m 8.000019,15.5 a 7.5,7.5 0 0 0 7.5,-7.4999997 7.5,7.5 0 0 0 -0.0098,-0.28711 A 7.5,7.5 0 0 1 7.999985,15 7.5,7.5 0 0 1 0.509751,7.7871093 7.5,7.5 0 0 0 0.499981,8.0000003 7.5,7.5 0 0 0 7.999981,15.5 Z"
     style="display:inline;opacity:0.2;fill:#000000;fill-opacity:1;stroke:none;stroke-width:2.15700412;stroke-linecap:round;stroke-linejoin:round;stroke-miterlimit:4;stroke-dasharray:none;stroke-opacity:1;enable-background:new"
     inkscape:connector-curvature="0" />
</svg>
